X:1
T: Man Who Broke the Bank At Monte Carlo
M:6/8
L:1/8
K:G
 D| GGG GAA| AAB BBB| d2 e BcA| AA A2 dA| BGG G G3| D| GGG GAA| AAB BBB|\
 d2 ^c BBA| dFG BAG| F4- F2| d| B| AdA FGA| GE D4-| D2| DE| F2 F F2 F|\
 F2 F FED| B2 B B2 B| B3- BD D| c2 c c2 c| c3- cA D| d2 d d2 d| d3- de B|\
 c2 c c2 c| c2 c cdA| B2 B B2 B| B2 B BcB| A2 A ^G2 A| B2 A F2 D| A6|\
 G3- G||
